!!!COM: Mozart, Wolfgang Amadeus
!!!CDT: 1756/01/27/-1791/12/05/
!!!CNT: German
!!!OTL: Piano Sonata No. 7 in C major
!!!SCT1: K<sup>1</sup> 309
!!!SCT2: K<sup>6</sup> 284b
!!!OMV: 3
!!!OMD: Rondo: Allegretto grazioso
!!!ODT: 1777///
**kern	**kern	**dynam
*staff2	*staff1	*staff1/2
*clefF4	*clefG2	*clefG2
*k[]	*k[]	*k[]
*C:	*C:	*C:
*M2/4	*M2/4	*M2/4
*MM112	*MM112	*MM112
8r	8gg	mf
*clefG2	*	*
=1	=1	=1
!LO:TX:i:t=legato	!	!
16cLL	(16ffLL	.
16e	16ee	.
16g	16dd	.
16eJJ	16ccJJ)	.
16cLL	8ccL	.
16e	.	.
16g	8ccJ	.
16eJJ	.	.
=2	=2	=2
16cLL	4.cc	.
16e	.	.
16g	.	.
16eJJ	.	.
16cLL	.	.
16e	.	.
16g	8ccc	.
16eJJ	.	.
=3	=3	=3
16cLL	(16bbLL	.
16f	16aa	.
16a	16gg	.
16fJJ	16ffJJ)	.
16cLL	8ffL	.
16f	.	.
16a	8ffJ	.
16fJJ	.	.
=4	=4	=4
16cLL	4.ff	.
16f	.	.
16a	.	.
16fJJ	.	.
16cLL	.	.
16f	.	.
16a	8aa	.
16fJJ	.	.
=5	=5	=5
16cLL	(16aaLL	.
16e	16gg	.
16g	16ff	.
16eJJ	16eeJJ)	.
16cLL	(8eeL	.
16e	.	.
16g	8ggJ)	.
16eJJ	.	.
=6	=6	=6
16BLL	(16ggLL	.
16d	16ff	.
16g	16ee	.
16dJJ	16ddJJ)	.
16BLL	(8ddL	.
16d	.	.
16g	8ffJ)	.
16dJJ	.	.
=7	=7	=7
8c	(16ffLL	.
.	16ee	.
(8e 8gL	16dd	.
.	16ccJJ)	.
8d 8f	8b'L	.
8c) 8eJ	8cc'J	.
=8	=8	=8
[4G (>4c	(4ee	.
8G] 8B)	8ddL)	.
8r	8ggJ	.
=9	=9	=9
!LO:TX:i:t=legato	!	!
16cLL	(16ffLL	.
16e	16ee	.
16g	16dd	.
16eJJ	16ccJJ)	.
16cLL	8ccL	.
16e	.	.
16g	8ccJ	.
16eJJ	.	.
=10	=10	=10
.	(32bqLLL	.
.	32ccq	.
.	32ddqJJJ	.
16cLL	4.cc)	.
16e	.	.
16g	.	.
16eJJ	.	.
16cLL	.	.
16e	.	.
16g	8ccc	.
16eJJ	.	.
=11	=11	=11
16cLL	(16bbLL	.
16f	16aa	.
16a	16gg	.
16fJJ	16ffJJ)	.
16cLL	8ffL	.
16f	.	.
16a	8ffJ	.
16fJJ	.	.
=12	=12	=12
.	(32eeqLLL	.
.	32ffq	.
.	32ggqJJJ	.
16cLL	4.ff)	.
16f	.	.
16a	.	.
16fJJ	.	.
16cLL	.	.
16f	.	.
16a	8aa	.
16fJJ	.	.
=13	=13	=13
16cLL	(16aaLL	.
16e	16gg	.
16g	16ff	.
16eJJ	16eeJJ)	.
16c#LL	(8eeL	.
16e	.	.
16a	8ggJ)	.
16eJJ	.	.
=14	=14	=14
16dLL	(16ggLL	.
16f	16ff	.
16a	16ee	.
16fJJ	16ddJJ)	.
16BLL	(8ddL	.
16d	.	.
16g	8ffJ)	.
16dJJ	.	.
=15	=15	=15
*^	*	*
8cn 8g	8ryy	(16ffLL	.
.	.	16ee	.
*clefF4	*clefF4	*	*
8dL	8F	16ff	.
.	.	16ddJJ)	.
8e	4G	(8ccL	.
8dJ	.	8btJ	.
*v	*v	*	*
*clefG2	*	*
.	16aqLL	.
.	16bqJJ)	.
=16	=16	=16
(16cLL	(16aaLL	.
16e	16gg	.
16g	16ff	.
16eJJ	16eeJJ)	.
16c#LL	(16eeeLL	.
16e	16ccc#	.
16a	16aa)	.
16eJJ	16gg'JJ	.
=17	=17	=17
16dLL	(16ggLL	.
16f	16ff	.
16a	16ee	.
16fJJ	16ddJJ)	.
16BLL	(16dddLL	.
16d	16bb	.
16g	16gg)	.
16dJJ)	16ff'JJ	.
=18	=18	=18
*^	*	*
8cn 8g	8r	(16ffLL	.
.	.	16ee)	.
*clefF4	*clefF4	*	*
8dL	8F	(16aa	.
.	.	16ffJJ)	.
8c	4G	(16eeLL	.
.	.	16gg)	.
8BJ	.	(16ff	.
.	.	16ddJJ)	.
*v	*v	*	*
=19	=19	=19
8c	8cc	.
8GG 8GL	8r	.
8EE 8E	(16cLL	f
.	16e	.
8CC 8CJ	16g	.
.	16ccJJ)	.
=20	=20	=20
*	*^	*
8GG 8G	4cc	4e	.
8GL	.	.	.
8G	(16eeLL	4f	.
.	16dd	.	.
8GJ	16cc	.	.
.	16ddJJ)	.	.
=21	=21	=21	=21
8c	8cc	8e	.
8GG 8GL	8r	4.ryy	.
8EE 8E	16c 16eLL	.	.
.	16e 16g	.	.
8CC 8CJ	16g 16cc	.	.
.	16cc 16eeJJ	.	.
*	*v	*v	*
=22	=22	=22
8GG 8G	4cc 4ee	.
8GL	.	.
8G	16ee (16ggLL	.
.	16dd 16ff	.
8GJ	16cc 16ee	.
.	16dd 16ffJJ)	.
=23	=23	=23
8c	8cc 8ee	.
8GG 8GL	8r	.
8EE 8E	(16ccLL	.
.	16ee	.
8CC 8CJ	16gg	.
.	16cccJJ)	.
=24	=24	=24
*^	*	*
2c	(4F	(8gg#L	.
.	.	16aaJk)	>
.	.	16r	.
!	!	!LO:TX:i:t=dim.	!
.	4E	(8ff#L	.
.	.	16ggnJk)	.
.	.	16r	.
=25	=25	=25	=25
2c	4A	(8eeL	.
.	.	16ffnJk)	.
.	.	16r	.
.	4G)	(8dd#L	.
.	.	16eeJk)	.
.	.	16r	.
=26	=26	=26	=26
4A	4F	(16cc#LL	.
.	.	16ddn	.
.	.	16ff	.
.	.	16aaJJ	.
8r	8r	16ggLL	.
.	.	16ff	.
8f	8F	16ee	.
.	.	16ddJJ)	.
=27	=27	=27	=27
(8eL	4G	(8ccnL	.
8dJ)	.	8bJ)	.
4r	4r	(16cLL	f
.	.	16e	.
.	.	16g	.
.	.	16ccJJ)	.
*v	*v	*	*
=28	=28	=28
*	*^	*
(16GGLL	4cc	4e	.
16C	.	.	.
16E	.	.	.
16GJJ)	.	.	.
8GL	(16eeLL	4f	.
.	16dd	.	.
8GJ	16cc	.	.
.	16ddJJ)	.	.
=29	=29	=29	=29
8cL	8cc	8e	.
8CJ	8r	4.ryy	.
4r	16c 16eLL	.	.
.	16e 16g	.	.
.	16g 16cc	.	.
.	16cc 16eeJJ	.	.
*	*v	*v	*
=30	=30	=30
(16GGLL	4cc 4ee	.
16C	.	.
16E	.	.
16GJJ)	.	.
8GL	16ee (16ggLL	.
.	16dd 16ff	.
8GJ	16cc 16ee	.
.	16dd 16ffJJ)	.
=31	=31	=31
8cL	8cc 8ee	.
8CJ	8r	.
4r	(16ccLL	.
.	16ee	.
.	16gg	.
.	16cccJJ	.
=32	=32	=32
*^	*	*
8r	(4F	16gg#LL	.
.	.	16aa)	.
4c	.	16aa'	.
.	.	16aa'JJ	.
.	4E	(16ff#LL	.
.	.	16ggn)	.
[8c	.	16gg'	.
.	.	16gg'JJ	.
=33	=33	=33	=33
8c]	4A	(16eeLL	.
.	.	16ffn)	.
4c)	.	16ff'	.
.	.	16ff'JJ	.
.	4G	(16dd#LL	.
.	.	16ee)	.
8c	.	16ee'	.
.	.	16ee'JJ	.
*v	*v	*	*
=34	=34	=34
*	*^	*
(16ELL	(8ccc	4cc	.
16F)	.	.	.
16F'	4aa	.	.
16F'JJ	.	.	.
(16D#LL	.	4cc	.
16E)	.	.	.
16E'	[8gg	.	.
16E'JJ	.	.	.
=35	=35	=35	=35
(16C#LL	8gg]	4cc	.
16Dn)	.	.	.
16D'	4ff	.	.
16D'JJ	.	.	.
(16BBLL	.	4cc	.
16Cn)	.	.	.
16C'	8ee)	.	.
16C'JJ	.	.	.
*	*v	*v	*
=36	=36	=36
[2F [2A	(8.ddSSsL	p
.	16eeJk)	.
.	(8.ffSSsL	<
.	16ggJk)	.
=37	=37	=37
4F] 4A]	(8.aaSSsL	.
.	16bbJk)	.
8F# 8A	8ccc'L	f
8r	16r	.
.	16eeJk	p
=38	=38	=38
8r	[4gg	.
8G 8cL	.	.
8G 8c	(16ggLL]	.
.	32ff#L	.
.	32ggJJJ	.
8G 8cJ	32aaLLL	.
.	32gg	.
.	32ffn	.
.	32eeJJJ	.
=39	=39	=39
8G 8B	8dd)	.
*clefG2	*	*
(8g 8bL	8r	.
8a 8cc	8r	.
8f#) 8aJ	8dd	f
=40	=40	=40
8g 8b	(24dddLL	.
.	24eee	.
.	24dddJJ	.
8r	24cccLL	.
.	24bb	.
.	24aaJJ	.
4r	24bbLL	.
.	24ccc	.
.	24bbJJ	.
.	24aaLL	.
.	24gg	.
.	24ff#JJ	.
=41	=41	=41
*	*Xtuplet	*
2r	24ggLL	.
.	24aa	.
.	24ggJJ	.
.	24ff#LL	.
.	24ee	.
.	24dd#JJ	.
.	24eeLL	.
.	24ff#	.
.	24eeJJ	.
.	24ddnLL	.
.	24cc	.
.	24bJJ	.
*clefF4	*	*
=42	=42	=42
8r	8.ccL	.
8G 8A 8eL	.	.
.	32eeLL	.
.	32ddJJJ	.
8G 8A 8e	8cc)	.
8G 8A 8eJ	16r	.
.	16cc	p
=43	=43	=43
8r	(8.ccL	.
8G 8A 8e-L	.	.
.	32ee-LL	.
.	32ddJJJ	.
8G 8A 8e-	8cc)	.
8G 8A 8e-J	16r	.
.	16cc	.
=44	=44	=44
*	*tuplet	*
8F# 8A 8d	(24cccLL	f
.	24ddd	.
.	24cccJJ	.
8r	24bbLL	.
.	24aa	.
.	24gg#JJ	.
*	*Xtuplet	*
4r	24aaLL	.
.	24bb	.
.	24aaJJ	.
.	24ggnLL	.
.	24ff#	.
.	24ee#JJ	.
=45	=45	=45
2r	24ff#LL	.
.	24gg	.
.	24ff#JJ	.
.	24eenLL	.
.	24dd	.
.	24cc#JJ	.
.	24ddLL	.
.	24ee	.
.	24ddJJ	.
.	24ccnLL	.
.	24b	.
.	24aJJ	.
=46	=46	=46
8r	8.bL	.
8G 8dL	.	.
.	32ddLL	.
.	32ccJJJ	.
8G 8d	8b)	.
8G 8dJ	16r	.
.	16b	p
=47	=47	=47
8r	(8.bL	.
8G 8dL	.	.
.	32ddLL	.
.	32ccJJJ	.
8G 8d	8b)	.
8G 8dJ	16r	.
.	16dd	.
=48	=48	=48
*	*tuplet	*
4BB 4G	(>24bbLL	f
.	24ddd	.
.	24cccJJ	.
.	24bbLL	.
.	24aa	.
.	24ggJJ	.
*	*Xtuplet	*
4r	24ff#LL	.
.	24aa	.
.	24ggJJ	.
.	24bbLL	.
.	24dd#	.
.	24ff#JJ	.
=49	=49	=49
4C 4G	24eeLL	.
.	24gg	.
.	24ff#JJ	.
.	24eeLL	.
.	24ddn	.
.	24ccJJ	.
4r	24bLL	.
.	24dd	.
.	24ccJJ	.
.	24eeLL	.
.	24g#	.
.	24bJJ	.
=50	=50	=50
*Xtuplet	*	*
(24ALL	24aLL>	.
24c	24cc	.
24BJJ	24bJJ	.
24ALL	24aLL	.
24Gn	24gn	.
24F#JJ	24f#JJ	.
24ELL	24eLL	.
24G	24g	.
24F#JJ	24f#JJ	.
24ALL	24aLL	.
24C#	24c#	.
24EJJ	24eJJ	.
=51	=51	=51
24DLL	24dLL	.
24E	24e	.
24C#JJ	24c#JJ	.
24DLL	24dLL	.
24E	24e	.
24C#JJ	24c#JJ	.
24DLL	24dLL	.
24E	24e	.
24C#JJ	24c#JJ	.
24DLL	24dLL	.
24E	24e	.
24C#JJ	24c#JJ)	.
=52	=52	=52
8D)	8d'L	.
8r	8ccn	p
4r	8cc	.
.	8ccJ	.
*clefG2	*	*
=53	=53	=53
*^	*	*
16f#LL	8dL	(8ccL	.
16a	.	.	.
16f#	8e-	8ccc)	.
16aJJ	.	.	.
16f#LL	8d	8ccc'	.
16a	.	.	.
16f#	8e-J	8ccc'J	.
16aJJ	.	.	.
=54	=54	=54	=54
16f#LL	8dL	(8.cccL	.
16a	.	.	.
16f#	8e-	.	.
16aJJ	.	16aaJk	.
16f#LL	8d	8ff#')	.
16a	.	.	.
16f#	8e-J	8r	.
16aJJ	.	.	.
=55	=55	=55	=55
16f#LL	8dL	16r	.
16a	.	(16ccLL	.
16f#	8e-	16ccc)	.
16aJJ	.	16ccc'JJ	.
16f#LL	8d	16ccc'LL	<
16a	.	16ccc'	.
16f#	8e-J	16ccc'	.
16aJJ	.	16ccc'JJ	.
=56	=56	=56	=56
16f#LL	8dL	(8.cccL	.
16a	.	.	.
16f#	8e-	.	.
16aJJ	.	16aaJk	.
16f#LL	8d	8ff#')	.
16a	.	.	.
16f#	8e-J	8r	.
16aJJ	.	.	.
=57	=57	=57	=57
16f#LL	8dL	[8cccL	f
16a	.	.	.
16f#	8e-	(32cccLL]	.
.	.	32aa	.
16aJJ	.	32ccc	.
.	.	32aaJJJ	.
16f#LL	8d	8ff#')	.
16a	.	.	.
16f#	8cJ	8r	.
16aJJ	.	.	.
*v	*v	*	*
=58	=58	=58
8B 8g	32ddLLL	ff
.	32ddd	.
.	32dd	.
.	32dddJJJ	.
8r	32ddLLL	.
.	32ddd	.
.	32dd	.
.	32dddJJJ	.
8g 8bL	32ddLLL	.
.	32ddd	.
.	32dd	.
.	32dddJJJ	.
8f# 8ccJ	32ddLLL	.
.	32ddd	.
.	32dd	.
.	32dddJJJ	.
=59	=59	=59
8g 8b	32ddLLL	.
.	32ddd	.
.	32dd	.
.	32dddJJJ	.
8r	32ddLLL	.
.	32ddd	.
.	32dd	.
.	32dddJJJ	.
*clefF4	*	*
8G 8BL	32ddLLL	.
.	32ddd	.
.	32dd	.
.	32dddJJJ	.
8F# 8cJ	32ddLLL	.
.	32ddd	.
.	32dd	.
.	32dddJJJ	.
=60	=60	=60
8G 8B	32ddLLL	.
.	32ddd	.
.	32dd	.
.	32dddJJJ	.
8r	32ddLLL	.
.	32ddd	.
.	32dd	.
.	32dddJJJ	.
*clefG2	*	*
16g' 16b'LL	32ddLLL	.
.	32ddd	.
16g' 16b'	32dd	.
.	32dddJJJ	.
16f#' 16cc'	32ddLLL	.
.	32ddd	.
16f#' 16cc'JJ	32dd	.
.	32dddJJJ	.
=61	=61	=61
8g 8b	32ddLLL	.
.	32ddd	.
.	32dd	.
.	32dddJJJ	.
8r	32ddLLL	.
.	32ddd	.
.	32dd	.
.	32dddJJJ	.
*clefF4	*	*
16G' 16B'LL	32ddLLL	.
.	32ddd	.
16G' 16B'	32dd	.
.	32dddJJJ	.
16F#' 16c'	32ddLLL	.
.	32ddd	.
16F#' 16c'JJ	32dd	.
.	32dddJJJ	.
=62	=62	=62
8G 8B	16dd 16ddd	.
.	16ccc'LL	.
8r	16bb'	.
.	16aa'JJ	.
4r	16gg'LL	.
.	16ff#'	.
.	16ee'	.
.	16dd'JJ	.
=63	=63	=63
.	(32ccqLLL	.
.	32ddqJJJ	.
8C 8E 8A	16ee'LL)	.
.	16dd'	.
8r	16cc'	.
.	16b'JJ	.
4r	16a'LL	.
.	16g'	.
.	16f#'	.
.	16e'JJ	.
=64	=64	=64
8DD 8D	8d	.
8r	8r	.
8DD# 8D#	8A 8c 8f#	.
8r	8r	.
=65	=65	=65
8EE 8E	8G 8B 8g	.
8r	8r	.
4r	4r	.
*clefG2	*	*
=66	=66	=66
.	(32aaqq	.
8r	[4gg)	p
8c# 8e 8aL	.	.
8c# 8e 8a	(16ggLL]	.
.	16ff#)	.
8c# 8e 8aJ	(16gg	.
.	16eeJJ)	.
=67	=67	=67
8r	[4dd	.
8d 8g 8bL	.	.
8d 8g 8b	(16ddLL]	.
.	16cc#)	.
8d 8g 8bJ	(16dd	.
.	16bJJ)	.
=68	=68	=68
.	(32ddqq	.
8r	[4ccn)	.
8d 8f# 8aL	.	.
8d 8f# 8a	(16ccLL]	.
.	16b)	.
8d 8f# 8aJ	(16cc	.
.	16aJJ)	.
=69	=69	=69
4r	32ddLLL	f
.	32ddd	.
.	32dd	.
.	32dddJJJ	.
.	32ddLLL	.
.	32ddd	.
.	32dd	.
.	32dddJJJ	.
8g 8b-L	32ddLLL	.
.	32ddd	.
.	32dd	.
.	32dddJJJ	.
8f# 8ccJ	32ddLLL	.
.	32ddd	.
.	32dd	.
.	32dddJJJ	.
=70	=70	=70
8g 8b-	32ddLLL	.
.	32ddd	.
.	32dd	.
.	32dddJJJ	.
8r	32ddLLL	.
.	32ddd	.
.	32dd	.
.	32dddJJJ	.
*clefF4	*	*
8G 8B-L	32ddLLL	.
.	32ddd	.
.	32dd	.
.	32dddJJJ	.
8F# 8cJ	32ddLLL	.
.	32ddd	.
.	32dd	.
.	32dddJJJ	.
=71	=71	=71
8G 8B-	32ddLLL	.
.	32ddd	.
.	32dd	.
.	32dddJJJ	.
8r	32ddLLL	.
.	32ddd	.
.	32dd	.
.	32dddJJJ	.
*clefG2	*	*
16g' 16bn'LL	32ddLLL	.
.	32ddd	.
16g' 16b'	32dd	.
.	32dddJJJ	.
16f#' 16cc'	32ddLLL	.
.	32ddd	.
16f#' 16cc'JJ	32dd	.
.	32dddJJJ	.
=72	=72	=72
8g 8b	32ddLLL	.
.	32ddd	.
.	32dd	.
.	32dddJJJ	.
8r	32ddLLL	.
.	32ddd	.
.	32dd	.
.	32dddJJJ	.
*clefF4	*	*
16G' 16Bn'LL	32ddLLL	.
.	32ddd	.
16G' 16B'	32dd	.
.	32dddJJJ	.
16F#' 16c'	32ddLLL	.
.	32ddd	.
16F#' 16c'JJ	32dd	.
.	32dddJJJ	.
=73	=73	=73
8G 8B	32ddLLL	.
.	32ddd	.
.	32dd	.
.	32dddJJJ	.
4.BB 4.F# 4.A	32dd#LLL	fp
.	32ddd#	.
.	32dd#	.
.	32ddd#JJJ	.
.	32dd#LLL	.
.	32ddd#	.
.	32dd#	.
.	32ddd#JJJ	.
.	32dd#LLL	.
.	32ddd#	.
.	32dd#	.
.	32ddd#JJJ	.
=74	=74	=74
8C 8G	32eeLLL	.
.	32eee	.
.	32ee	.
.	32eeeJJJ	.
4.C# 4.E 4.G	32b-LLL	fp
.	32bb-	.
.	32b-	.
.	32bb-JJJ	.
.	32b-LLL	.
.	32bb-	.
.	32b-	.
.	32bb-JJJ	.
.	32b-LLL	.
.	32bb-	.
.	32b-	.
.	32bb-JJJ	.
=75	=75	=75
*	*tuplet	*
8D 8G	(24bbnLL	f
.	24ddd	.
.	24bbJJ	.
8r	24ggLL	.
.	24dd	.
.	24bnJJ	.
*tuplet	*Xtuplet	*
24r	24gLL	.
(24BLL	24b	.
24GJJ	24gJJ	.
24DLL	24dLL	.
24BB	24B	.
24GGJJ	24GJJ	.
=76	=76	=76
8DD)	8d)	.
8r	8r	.
8D 8d	8a 8cc 8dd 8ff#	.
8r	8r	.
=77	=77	=77
8GG 8G	8g: 8b: 8dd: 8gg:	.
8r	8r	.
4r	16g'LL	p
.	16a'	.
.	16b'	.
.	16cc'JJ	.
=78	=78	=78
2r	8dd'L	.
.	8ee'	.
.	8dd'	.
.	8cc#'J	.
=79	=79	=79
8r	8ccn	.
8F# 8e-	8r	.
8r	8b	.
8G 8d	8r	.
=80	=80	=80
4C 4En	8r	.
.	(8aL	.
8r	8cc	.
8D (8c	8f#J	.
=81	=81	=81
(8G 8BL)	8g)	.
8GGJ)	8r	.
4r	16gg'LL	.
.	16aa'	.
.	16bb'	.
.	16ccc'JJ	.
=82	=82	=82
2r	8ddd'L	.
.	8eee'	.
.	8ddd'	.
.	8ccc#'J	.
*clefG2	*	*
=83	=83	=83
8r	8cccn	.
8d# 8f#	8r	.
8r	8bb	.
8e 8g	8r	.
=84	=84	=84
4c 4e	8r	.
.	(8aaL	.
8r	8ccc	.
8dn 8cc	8ff#J	.
=85	=85	=85
8g 8b	4gg)	f
*clefF4	*	*
8D (8dL	.	.
8BB 8B	8r	.
8GG 8GJ)	8B 8d 8g	.
=86	=86	=86
8r	4d 4g 4b	.
(8BB 8BL	.	.
8GG 8G	8r	.
8DD) 8DJ	8d 8g 8b	.
=87	=87	=87
8r	4g 4b 4dd	.
(8FFn 8FnL	.	.
8DD 8D	8r	.
8BBB) 8BBJ	8g 8b 8dd	.
=88	=88	=88
8r	4g 4b 4dd 4ffn	.
(8DD 8DL	.	.
8BBB 8BB	8r	.
8GGG) 8GGJ	8g 8b 8dd 8ff	.
=89	=89	=89
4GG 4G	8dd 8ff 8gg 8bb	.
.	(8ffL	p
8r	8dd	.
8G 8B 8d	8bJ)	.
=90	=90	=90
4G 4B 4d	8r	.
.	(8bbL	<
8r	8ff	.
8G 8B 8d	8ddJ)	.
=91	=91	=91
4G 4B 4d	8r	.
.	(8fffL	.
8r	8ddd	.
8G 8B 8d	8bbJ)	.
=92	=92	=92
4G 4B 4d 4f	8r	.
.	(8dddL	.
4r	8bb	.
.	8ffJ)	.
*clefG2	*	*
=93	=93	=93
!LO:TX:i:t=legato	!	!
16cLL	(16ffLL	p
16e	16ee	.
16g	16dd	.
16eJJ	16ccJJ)	.
16cLL	8ccL	.
16e	.	.
16g	8ccJ	.
16eJJ	.	.
=94	=94	=94
16cLL	4.cc	.
16e	.	.
16g	.	.
16eJJ	.	.
16cLL	.	.
16e	.	.
16g	8ccc	.
16eJJ	.	.
=95	=95	=95
16cLL	(16bbLL	.
16f	16aa	.
16a	16gg	.
16fJJ	16ffJJ)	.
16cLL	8ffL	.
16f	.	.
16a	8ffJ	.
16fJJ	.	.
=96	=96	=96
16cLL	4.ff	.
16f	.	.
16a	.	.
16fJJ	.	.
16cLL	.	.
16f	.	.
16a	8aa	.
16fJJ	.	.
=97	=97	=97
16cLL	(16aaLL	.
16e	16gg	.
16g	16ff	.
16eJJ	16eeJJ)	.
16cLL	(8eeL	.
16e	.	.
16g	8ggJ)	.
16eJJ	.	.
=98	=98	=98
16BLL	(16ggLL	.
16d	16ff	.
16g	16ee	.
16dJJ	16ddJJ)	.
16BLL	(8ddL	.
16d	.	.
16g	8ffJ)	.
16dJJ	.	.
=99	=99	=99
8c	(16ffLL	.
.	16ee	.
(8e 8gL	16dd	.
.	16ccJJ)	.
8d 8f	8b'L	.
8c) 8eJ	8cc'J	.
=100	=100	=100
[4G (>4c	(4ee	.
8G] 8B)	16ddLL)	.
.	(16ff#	.
8r	16gg	.
.	16ffnJJ)	.
=101	=101	=101
!LO:TX:i:t=legato	!	!
16cLL	(16ffLL	.
16e	16ee	.
16g	16dd	.
16eJJ	16ccJJ	.
16cLL	16bLL	.
16e	16cc	.
16g	16dd	.
16eJJ	16ccJJ)	.
=102	=102	=102
16cLL	[4cc	.
16e	.	.
16g	.	.
16eJJ	.	.
16cLL	(16ccLL]	.
16e	16gg	.
16g	16ee	.
16eJJ	16cccJJ)	.
=103	=103	=103
16cLL	(16bbLL	.
16f	16aa	.
16a	16gg	.
16fJJ	16ffJJ	.
16cLL	16eeLL	.
16f	16ff	.
16a	16gg	.
16fJJ	16ffJJ)	.
=104	=104	=104
16cLL	[4ff	.
16f	.	.
16a	.	.
16fJJ	.	.
16cLL	(16ffLL]	.
16f	16aa	.
16a	16ccc	.
16fJJ	16aaJJ)	.
=105	=105	=105
16cLL	(16aaLL	.
16e	16gg	.
16g	16ff	.
16eJJ	16eeJJ)	.
16c#LL	(16eeLL	.
16e	16bb-	.
16a	16aa	.
16eJJ	16ggJJ)	.
=106	=106	=106
16dLL	(16ggLL	.
16f	16ff	.
16a	16ee	.
16fJJ	16ddJJ)	.
16BLL	(16ddLL	.
16d	16aa	.
16g	16gg	.
16dJJ	16ffJJ)	.
=107	=107	=107
*^	*	*
8cn 8g	8ryy	(16ffLL	.
.	.	16ee	.
*clefF4	*clefF4	*	*
8dL	8F	16ff	.
.	.	16ddJJ	.
8e	4G	8ccL)	.
8dJ	.	8btJ	.
*v	*v	*	*
.	(16aqLL	.
.	16bqJJ)	.
=108	=108	=108
(16CLL	(16ggLL	f
16G	16ee)	.
16E	16eee'	.
16GJJ	16eee'JJ	.
16C#LL	(16eeeLL	.
16A	16gg	.
16E	16aa	.
16AJJ)	16eeJJ)	.
=109	=109	=109
(16DLL	(16ffLL	.
16A	16dd)	.
16F	16ddd'	.
16AJJ	16ddd'JJ	.
16BBLL	(16dddLL	.
16G	16ff	.
16D	16gg	.
16GJJ)	16ddJJ)	.
=110	=110	=110
*^	*	*
8Cn	8ryy	(16eeLL	.
.	.	16ccc	.
4ryy	(16eLL	16gg#	.
.	16fJJ)	16aaJJ)	.
.	(16d#LL	(16ff#LL	.
.	16eJJ)	16ggn)	.
(16dnLL	8G	(16ffn	.
16BJJ)	.	16ddJJ)	.
*v	*v	*	*
=111	=111	=111
8c	(32ccLLL	.
.	32ccc	.
.	32cc	.
.	32cccJJJ	.
8r	32ccLLL	.
.	32ccc	.
.	32cc	.
.	32cccJJJ	.
*clefG2	*	*
8e 8gL	32ccLLL	.
.	32ccc	.
.	32cc	.
.	32cccJJJ	.
8f 8aJ	32ccLLL	.
.	32ccc	.
.	32cc	.
.	32cccJJJ	.
=112	=112	=112
8g 8b-	32ccLLL	.
.	32ccc	.
.	32cc	.
.	32cccJJJ	.
8r	32ccLLL	.
.	32ccc	.
.	32cc	.
.	32cccJJJ	.
*clefF4	*	*
8E 8GL	32ccLLL	.
.	32ccc	.
.	32cc	.
.	32cccJJJ	.
8F 8AJ	32ccLLL	.
.	32ccc	.
.	32cc	.
.	32cccJJJ	.
=113	=113	=113
8G 8B-	32ccLLL	.
.	32ccc	.
.	32cc	.
.	32cccJJJ	.
8r	32ccLLL	.
.	32ccc	.
.	32cc	.
.	32cccJJJ	.
*clefG2	*	*
16e' 16g'LL	32ccLLL	.
.	32ccc	.
16e' 16g'	32cc	.
.	32cccJJJ	.
16f' 16a'	32ccLLL	.
.	32ccc	.
16f' 16a'JJ	32cc	.
.	32cccJJJ	.
=114	=114	=114
8g 8b-	32ccLLL	.
.	32ccc	.
.	32cc	.
.	32cccJJJ	.
8r	32ccLLL	.
.	32ccc	.
.	32cc	.
.	32cccJJJ	.
*clefF4	*	*
16E' 16G'LL	32ccLLL	.
.	32ccc	.
16E' 16G'	32cc	.
.	32cccJJJ	.
16F' 16A'	32ccLLL	.
.	32ccc	.
16F' 16A'JJ	32cc	.
.	32cccJJJ)	.
=115	=115	=115
8G 8B-	16ccLL	.
!	!LO:TX:i:t=dim.	!
.	(16bbn	>
8r	16ccc	.
.	16bbJJ	.
4r	16bb-LL	.
.	16aa	.
.	16bb-	.
.	16ggJJ)	.
*clefG2	*	*
=116	=116	=116
!LO:TX:i:t=legato	!	!
16fLL	16ffLL	p
.	32ggqq	.
16cc	(32ffL	.
.	32eeJ	.
16a	16ff')	.
16ccJJ	16gg'JJ	.
16fLL	16aaLL	.
.	32bb-qq	.
16cc	(32aaL	.
.	32ggJ	.
16a	16aa')	.
16ccJJ	16bb-'JJ	.
=117	=117	=117
16eLL	(8.cccL	.
16cc	.	.
16g	.	.
16ccJJ	16dddJk	.
16cLL	8bb-L)	.
16cc	.	.
16g	8ggJ	.
16ccJJ	.	.
=118	=118	=118
16fLL	16ffLL	.
.	(32ggqq	.
16cc	(32ffL)	.
.	32eeJ	.
16a	16ff')	.
16ccJJ	16gg'JJ	.
16fLL	16aaLL	.
.	(32bb-qq	.
16cc	(32aaL)	.
.	32ggJ	.
16a	16aa')	.
16ccJJ	16bb-'JJ	.
=119	=119	=119
16cLL	(8aaL	.
16cc	.	.
16bn	8ggJ)	.
16ccJJ	.	.
16cLL	(16ffLL	.
16b-	16ee	.
16g	16dd	.
16b-JJ	16ccJJ)	.
=120	=120	=120
16fLL	16ffLL	.
.	32ggqq	.
16cc	(32ffL	.
.	32eeJ	.
16a	16ff'	.
16ccJJ	16gg'JJ)	.
16fLL	16aaLL	.
.	(32bb-qq	.
16cc	(32aaL)	.
.	32ggJ	.
16a	16aa')	.
16ccJJ	16bb-'JJ	.
=121	=121	=121
16eLL	(8.cccL	.
16cc	.	.
16g	.	.
16ccJJ	16dddJk	.
16eLL	8bb-L)	.
16cc	.	.
16b-	8ggJ	.
16ccJJ	.	.
=122	=122	=122
16fLL	(8.aaL	.
16cc	.	.
16a	.	.
16ccJJ	16bb-Jk	.
16cLL	8ggL)	.
16b-	.	.
16g	8eeJ	.
16b-JJ	.	.
=123	=123	=123
8f 8a	(16ffLL	<
.	16cc	.
8r	16dd	.
.	16aJJ)	.
4r	(16b-LL	.
.	16g)	.
.	(16cc	.
.	16eJJ)	[
*clefF4	*	*
=124	=124	=124
(16FFLL	16fLL	f
.	(64gqq	.
16C	(32fL)	.
.	32eJ	.
16AA	16f')	.
16CJJ	16g'JJ	.
16FFLL	16aLL	.
.	(64b-qq	.
16C	(32aL)	.
.	32gJ	.
16AA	16a')	.
16CJJ	16b-'JJ	.
=125	=125	=125
16EELL	(8.ccL	.
16C	.	.
16GG	.	.
16CJJ	16ddJk	.
16CCLL	8b-L)	.
16GG	.	.
16EE	8gJ	.
16GGJJ	.	.
=126	=126	=126
16FFLL	16fLL	.
.	(64gqq	.
16C	(32fL)	.
.	32eJ	.
16AA	16f')	.
16CJJ	16g'JJ	.
16FFLL	16aLL	.
.	(64b-qq	.
16C	(32aL)	.
.	32gJ	.
16AA	16a')	.
16CJJ	16b-'JJ	.
=127	=127	=127
16CCLL	(8aL	.
16C	.	.
16GG	8gJ)	.
16CJJ	.	.
16CCLL	(16fLL	.
16BB-	16e	.
16GG	16d	.
16BB-JJ)	16cJJ)	.
=128	=128	=128
8FF 8AA	16fLL	.
.	(64gqq	.
.	(32fL)	.
.	32eJ	.
8r	16f')	.
.	16g'JJ	.
4r	16aLL	.
.	(64b-qq	.
.	(32aL)	.
.	32gJ	.
.	16a)	.
.	16b-'JJ	.
=129	=129	=129
16ALL	16ccLL	.
(64B-qq	(64ddqq	.
(32AL)	()32ccL	.
32GJ	32b-J	.
16A')	16cc')	.
16B-'JJ	16dd'JJ	.
16cLL	16eeLL	.
(64dqq	(64ffqq	.
()32cL	()32eeL	.
32B-J	32ddJ	.
16c')	16ee')	.
16d'JJ	16ff'JJ	.
=130	=130	=130
8r	(16ffLL	.
.	16dd)	.
8B-L	16dd (16ff	.
.	16b- 16ddJJ)	.
8c	(16a 16ccLL	.
.	16f) 16a	.
8CJ	(16g 16b-	.
.	16e) 16gJJ	.
=131	=131	=131
4F	(8f'L	p
.	8a'	.
4r	8cc'	.
.	8ee'J)	.
*clefG2	*	*
=132	=132	=132
8r	8ff	.
8f 8aL	4aa	fp
8f 8a	.	.
8f 8aJ	(32ggLLL	.
.	32ff	.
.	32ee	.
.	32ddJJJ	.
=133	=133	=133
8e 8g 8b-	8cc#L)	p
8r	(8ee'	.
4r	8gg'	.
.	8bb-'J)	.
=134	=134	=134
8r	8ccc#	.
8c# 8g 8aL	4eee	fp
8c# 8g 8a	.	.
8c# 8g 8aJ	(32dddLLL	.
.	32ccc#	.
.	32bbn	.
.	32aaJJJ	.
=135	=135	=135
8d 8f 8aL	16fffLL	f
.	16aa	.
8fJ	16bbn)	.
.	16ddd'JJ	.
8cn 8gL	(16eeeLL	.
.	16ff#	.
8e 8ccJ	16gg)	.
.	16cccn'JJ	.
=136	=136	=136
8f 8aL	(16eeeLL	.
.	16dddJJ)	.
8f 8a	4ddd	.
8f 8a	.	.
8f# 8a 8ddJ	8cccT	.
.	16bbqLL	.
.	16cccqJJ	.
=137	=137	=137
*	*tuplet	*
4g 4b 4dd	(>24bbLL	.
.	24ddd	.
.	24cccJJ	.
.	24bbLL	.
.	24aa	.
.	24ggJJ	.
*	*Xtuplet	*
4r	24ff#LL	.
.	24aa	.
.	24ggJJ	.
.	24bbLL	.
.	24dd	.
.	24ffnJJ	.
=138	=138	=138
4g 4cc	24eeLL	.
.	24gg	.
.	24ffJJ	.
.	24eeLL	.
.	24dd	.
.	24ccJJ	.
4r	24bLL	.
.	24dd	.
.	24ccJJ	.
.	24eeLL	.
.	24a	.
.	24ccJJ	.
*clefF4	*	*
=139	=139	=139
*Xtuplet	*	*
(<24BLL	24bLL	.
24d	24dd	.
24cJJ	24ccJJ	.
24BLL	24bLL	.
24A	24a	.
24GJJ	24gJJ	.
24F#LL	24f#LL	.
24A	24a	.
24GJJ	24gJJ	.
24BLL	24bLL	.
24D	24d	.
24FnJJ	24fnJJ	.
=140	=140	=140
24ELL	24eLL	.
24G	24g	.
24FJJ	24fJJ	.
24ELL	24eLL	.
24D	24d	.
24CJJ	24cJJ	.
24BBLL<	24BLL	.
24D	24d	.
24CJJ	24cJJ	.
24ELL<	24eLL	.
24FF#	24F#<	.
24AAJJ	24A<JJ)	.
=141	=141	=141
*^	*	*
(24GLL	24GGLL	2ryy	.
24A	24AA	.	.
24F#JJ	24FF#JJ	.	.
24GLL	24GGLL	.	.
24A	24AA	.	.
24F#JJ	24FF#JJ	.	.
24GLL	24GGLL	.	.
24A	24AA	.	.
24F#JJ	24FF#JJ	.	.
24GLL	24GGLL	.	.
24A	24AA	.	.
24F#JJ	24FF#JJ	.	.
=142	=142	=142	=142
8G)	8GG)	8ryy	.
*clefG2	*clefG2	*	*
(8B 8dL	4.ryy	8r	.
8c 8e	.	8r	.
8d) 8fnJ	.	8g	.
*v	*v	*	*
=143	=143	=143
*	*tuplet	*
4c 4e	(>24ggLL	.
.	24aa	.
.	24ggJJ	.
.	24ffnLL	.
.	24ee	.
.	24ddJJ	.
*	*Xtuplet	*
4r	24eeLL	.
.	24ff	.
.	24eeJJ	.
.	24ddLL	.
.	24cc	.
.	24bJJ	.
=144	=144	=144
2r	24ccLL	.
.	24dd	.
.	24ccJJ	.
.	24bLL	.
.	24a	.
.	24g#JJ	.
.	24aLL	.
.	24b	.
.	24aJJ	.
.	24gnLL	.
.	24f	.
.	24eJJ	.
*clefF4	*	*
=145	=145	=145
8r	8.fL	.
8C 8D 8AL	.	.
.	32aLL	.
.	32gJJJ	.
8C 8D 8A	8f)	.
8C 8D 8AJ	16r	.
.	16f	p
=146	=146	=146
8r	(8.fL	.
8C 8D 8A-L	.	.
.	32a-LL	.
.	32gJJJ	.
8C 8D 8A-	8f)	.
8C 8D 8A-J	16r	.
.	16f	.
=147	=147	=147
4BB 4D 4G	(>24ffLL	f
.	24gg	.
.	24ffJJ	.
.	24eeLL	.
.	24dd	.
.	24cc#JJ	.
4r	24ddLL	.
.	24ee	.
.	24ddJJ	.
.	24ccnLL	.
.	24b	.
.	24a#JJ	.
=148	=148	=148
2r	24bLL	.
.	24cc	.
.	24bJJ	.
.	24anLL	.
.	24g	.
.	24f#JJ	.
.	24gLL	.
.	24a	.
.	24gJJ	.
.	24fnLL	.
.	24e	.
.	24dJJ	.
=149	=149	=149
8r	8.eL	.
8C 8GL	.	.
.	32gLL	.
.	32fJJJ	.
8C 8G	8e)	.
8C 8GJ	16r	.
.	16e	p
=150	=150	=150
8r	(8.eL	.
8C 8GL	.	.
.	32gLL	.
.	32fJJJ	.
8C 8G	8e)	.
8C 8GJ	16r	.
.	16gg	.
=151	=151	=151
*	*tuplet	*
4E 4G 4c	(24cccLL	f
.	24ddd	.
.	24cccJJ	.
.	24aaLL	.
.	24gg	.
.	24ff#JJ	.
*	*Xtuplet	*
4r	24ggLL	.
.	24aa	.
.	24ggJJ	.
.	24ff#LL	.
.	24ee	.
.	24ddJJ	.
=152	=152	=152
2r	24eeLL	.
.	24ff	.
.	24eeJJ	.
.	24ddLL	.
.	24cc	.
.	24bJJ	.
.	24ccLL	.
.	24dd	.
.	24ccJJ	.
.	24gLL	.
.	24f	.
.	24eJJ	.
=153	=153	=153
8r	8.dL	.
8F 8A 8cL	.	.
.	32fLL	.
.	32eJJJ	.
8F 8A 8c	8d)	.
8F 8A 8cJ	16r	.
.	16d	p
=154	=154	=154
8r	(8.dL	.
8F 8A 8cL	.	.
.	32fLL	.
.	32eJJJ	.
8F 8A 8c	8d)	.
8F 8A 8cJ	16r	.
.	16dd	.
=155	=155	=155
4F 4A	(24cccLL	f
.	24ddd	.
.	24cccJJ	.
.	24bbLL	.
.	24aa	.
.	24gg#JJ	.
4r	24aaLL	.
.	24bb	.
.	24aaJJ	.
.	24ggnLL	.
.	24ff	.
.	24eeJJ	.
=156	=156	=156
2r	24ffLL	.
.	24gg	.
.	24ffJJ	.
.	24eeLL	.
.	24dd	.
.	24cc#JJ	.
.	24ddLL	.
.	24ee	.
.	24ddJJ	.
.	24ccnLL	.
.	24b	.
.	24aJJ	.
=157	=157	=157
*^	*	*
16BLL	8GL	8bL	p
16d	.	.	.
16B	8A-	8ff)	.
16dJJ	.	.	.
16BLL	8G	8ff'	.
16d	.	.	.
16B	8A-J	8ff'J	.
16dJJ	.	.	.
=158	=158	=158	=158
16BLL	8GL	(8.ffL	.
16d	.	.	.
16B	8A-	.	.
16dJJ	.	16ddJk	.
16BLL	8G	8b')	.
16d	.	.	.
16B	8A-J	8r	.
16dJJ	.	.	.
=159	=159	=159	=159
16BLL	8GL	16r	.
16d	.	(16fLL	.
16B	8A-	16ff)	.
16dJJ	.	16ff'JJ	.
16BLL	8G	16ff'LL	<
16d	.	16ff'	.
16B	8A-J	16ff'	.
16dJJ	.	16ff'JJ	.
=160	=160	=160	=160
16BLL	8GL	(8.ffL	.
16d	.	.	.
16B	8A-	.	.
16dJJ	.	16ddJk	.
16BLL	8G	8b')	.
16d	.	.	.
16B	8A-J	8r	.
16dJJ	.	.	.
=161	=161	=161	=161
16BLL	8GL	[8ffL	f
16d	.	.	.
16B	8A-	(32ffLL]	.
.	.	32dd	.
16dJJ	.	32ff	.
.	.	32ddJJJ	.
16BLL	8G	8b')	.
16d	.	.	.
16B	8FJ	8r	.
16dJJ	.	.	.
*v	*v	*	*
=162	=162	=162
8E 8c	32gLLL	ff
.	32gg	.
.	32g	.
.	32ggJJJ	.
8r	32gLLL	.
.	32gg	.
.	32g	.
.	32ggJJJ	.
8c 8eL	32gLLL	.
.	32gg	.
.	32g	.
.	32ggJJJ	.
8B 8fJ	32gLLL	.
.	32gg	.
.	32g	.
.	32ggJJJ	.
=163	=163	=163
8c 8e	32gLLL	.
.	32gg	.
.	32g	.
.	32ggJJJ	.
8r	32gLLL	.
.	32gg	.
.	32g	.
.	32ggJJJ	.
8C 8EL	32gLLL	.
.	32gg	.
.	32g	.
.	32ggJJJ	.
8BB 8FJ	32gLLL	.
.	32gg	.
.	32g	.
.	32ggJJJ	.
=164	=164	=164
8C 8E	32gLLL	.
.	32gg	.
.	32g	.
.	32ggJJJ	.
8r	32gLLL	.
.	32gg	.
.	32g	.
.	32ggJJJ	.
16c' 16e'LL	32gLLL	.
.	32gg	.
16c' 16e'	32g	.
.	32ggJJJ	.
16B' 16f'	32gLLL	.
.	32gg	.
16B' 16f'JJ	32g	.
.	32ggJJJ	.
=165	=165	=165
8c 8e	32gLLL	.
.	32gg	.
.	32g	.
.	32ggJJJ	.
8r	32gLLL	.
.	32gg	.
.	32g	.
.	32ggJJJ	.
16C' 16E'LL	32gLLL	.
.	32gg	.
16C' 16E'	32g	.
.	32ggJJJ	.
16BB' 16F'	32gLLL	.
.	32gg	.
16BB' 16F'JJ	32g	.
.	32ggJJJ	.
=166	=166	=166
8C 8E	16g 16gg	.
.	16ff'LL	.
8r	16ee'	.
.	16dd'JJ	.
4r	16cc'LL	.
.	16b'	.
.	16a'	.
.	16g'JJ	.
=167	=167	=167
.	(32ffqLLL	.
.	32ggqJJJ	.
8FF 8AA 8D	16aa'LL)	.
.	16gg'	.
8r	16ff'	.
.	16ee'JJ	.
4r	16dd'LL	.
.	16cc'	.
.	16b'	.
.	16a'JJ	.
=168	=168	=168
8GG 8G	8g	.
8r	8r	.
8GG# 8G#	8d 8f 8b	.
8r	8r	.
=169	=169	=169
8AA 8A	8c 8e 8cc	.
8r	8r	.
4r	4r	.
*clefG2	*	*
=170	=170	=170
.	(32dddqq	.
8r	[4ccc)	p
8f# 8a 8ddL	.	.
8f# 8a 8dd	(16ccc]LL	.
.	16bb)	.
8f# 8a 8ddJ	(16ccc	.
.	16aaJJ)	.
=171	=171	=171
8r	[4gg	.
8g 8cc 8eeL	.	.
8g 8cc 8ee	(16ggLL]	.
.	16ff#)	.
8g 8ccJ	(16gg	.
.	16eeJJ)	.
=172	=172	=172
.	32ggqq	.
8r	[4ffn	.
8g 8b 8ddL	.	.
8g 8b 8dd	(16ffLL]	.
.	16ee)	.
8g 8bJ	(16ff	.
.	16ddJJ)	.
=173	=173	=173
4r	32gLLL	f
.	32gg	.
.	32g	.
.	32ggJJJ	.
.	32gLLL	.
.	32gg	.
.	32g	.
.	32ggJJJ	.
*clefF4	*	*
8c 8e-L	32gLLL	.
.	32gg	.
.	32g	.
.	32ggJJJ	.
8B 8fJ	32gLLL	.
.	32gg	.
.	32g	.
.	32ggJJJ	.
=174	=174	=174
8c 8e-	32gLLL	.
.	32gg	.
.	32g	.
.	32ggJJJ	.
8r	32gLLL	.
.	32gg	.
.	32g	.
.	32ggJJJ	.
8C 8E-L	32gLLL	.
.	32gg	.
.	32g	.
.	32ggJJJ	.
8BB 8FJ	32gLLL	.
.	32gg	.
.	32g	.
.	32ggJJJ	.
=175	=175	=175
8C 8E-	32gLLL	.
.	32gg	.
.	32g	.
.	32ggJJJ	.
8r	32gLLL	.
.	32gg	.
.	32g	.
.	32ggJJJ	.
16c' 16en'LL	32gLLL	.
.	32gg	.
16c' 16e'	32g	.
.	32ggJJJ	.
16B' 16f'	32gLLL	.
.	32gg	.
16B' 16f'JJ	32g	.
.	32ggJJJ	.
=176	=176	=176
8c 8e	32gLLL	.
.	32gg	.
.	32g	.
.	32ggJJJ	.
8r	32gLLL	.
.	32gg	.
.	32g	.
.	32ggJJJ	.
16C' 16En'LL	32gLLL	.
.	32gg	.
16C' 16E'	32g	.
.	32ggJJJ	.
16BB' 16F'	32gLLL	.
.	32gg	.
16BB' 16F'JJ	32g	.
.	32ggJJJ	.
=177	=177	=177
8C 8E	32gLLL	.
.	32gg	.
.	32g	.
.	32ggJJJ	.
4.E 4.B 4.d	32g#LLL	fp
.	32gg#	.
.	32g#	.
.	32gg#JJJ	.
.	32g#LLL	.
.	32gg#	.
.	32g#	.
.	32gg#JJJ	.
.	32g#LLL	.
.	32gg#	.
.	32g#	.
.	32gg#JJJ	.
=178	=178	=178
8F 8c	32aLLL	.
.	32aa	.
.	32a	.
.	32aaJJJ	.
4.Gn 4.c# 4.e	32b-LLL	fp
.	32bb-	.
.	32b-	.
.	32bb-JJJ	.
.	32b-LLL	.
.	32bb-	.
.	32b-	.
.	32bb-JJJ	.
.	32b-LLL	.
.	32bb-	.
.	32b-	.
.	32bb-JJJ	.
=179	=179	=179
*	*tuplet	*
8F 8A 8d	(24aaLL	.
.	24bb-	.
.	24aaJJ	.
*	*Xtuplet	*
8r	24ggnLL	.
.	24aa	.
.	24ggJJ	.
4r	24ffLL	.
.	24gg	.
.	24ffJJ	.
.	24eeLL	.
.	24ff	.
.	24eeJJ	.
=180	=180	=180
4r	24ddLL	.
.	24ee	.
.	24ddJJ	.
.	24eeLL	.
.	24ff	.
.	24eeJJ	.
8r	24ffLL	.
.	24gg	.
.	24ffJJ	.
8E 8G 8c#	24bb-LL	f
.	24ccc	.
.	24bb-JJ	.
=181	=181	=181
8F 8A 8d	24aaLL	p
.	24bb-	.
.	24aaJJ	.
8r	24ggLL	.
.	24aa	.
.	24ggJJ	.
4r	24ffLL	.
.	24gg	.
.	24ffJJ	.
.	24eeLL	.
.	24ff	.
.	24eeJJ	.
=182	=182	=182
4r	24ddLL	.
.	24ee	.
.	24ddJJ	.
.	24eeLL	.
.	24ff	.
.	24eeJJ	.
8r	24ffLL	.
.	24gg	.
.	24ffJJ	.
8E 8G 8c#	24bb-LL	.
.	24ccc	.
.	24bb-JJ)	.
=183	=183	=183
[2F [2A [2d	(24aaLL	.
.	24ccc	.
.	24bbnJJ	.
.	24aaLL	.
.	24bb	.
.	24cccJJ	.
.	24ffLL	.
.	24aa	.
.	24ggJJ	.
.	24ffLL	.
.	24gg	.
.	24aaJJ	.
=184	=184	=184
*^	*	*
2A] 2d]	4F]	24ddLL	.
.	.	24ff	.
.	.	24eeJJ	.
.	.	24ddLL	.
.	.	24ee	.
.	.	24ffJJ	.
.	4F#	24aLL	.
.	.	24cc	.
.	.	24bJJ	.
.	.	24aLL	.
.	.	24b	.
.	.	24ccJJ	.
*v	*v	*	*
=185	=185	=185
8G 8B 8d	24bLL	.
.	24g	.
.	24bJJ	.
8r	24ddLL	.
.	24b	.
.	24ddJJ	.
4r	24ggLL	.
.	24dd	.
.	24ggJJ	.
.	24bbLL	.
.	24gg	.
.	24bbJJ	.
=186	=186	=186
8r	24dddLL	.
.	24bb)	.
.	24dddJJ	.
[4.GG [4.BB [4.D [4.G	[4.ff [4.fff	fp
=187	=187	=187
8GG] 8BB] 8D] 8G]	16ff] 16fffLL]	.
.	(16fff	.
8r	16ddd#	.
.	16eeeJJ	.
4r	16ccc#LL	.
.	16dddn	.
.	16bb	.
.	16cccnJJ	.
=188	=188	=188
2r	16aa#LL	.
.	16bb	.
.	16gg#	.
.	16aanJJ	.
.	16ff#LL	.
.	16ggn	.
.	16ffn	.
.	16ggJJ)	.
*clefG2	*	*
=189	=189	=189
!LO:TX:i:t=legato	!	!
16cLL	(16ffLL	.
16e	16ee	.
16g	16dd	.
16eJJ	16ccJJ)	.
16cLL	8ccL	.
16e	.	.
16g	8ccJ	.
16eJJ	.	.
=190	=190	=190
.	(16bqLL	.
.	16ccq	.
.	16ddqJJ	.
16cLL	4.cc)	.
16e	.	.
16g	.	.
16eJJ	.	.
16cLL	.	.
16e	.	.
16g	8ccc	.
16eJJ	.	.
=191	=191	=191
16cLL	(16bbLL	.
16f	16aa	.
16a	16gg	.
16fJJ	16ffJJ)	.
16cLL	8ffL	.
16f	.	.
16a	8ffJ	.
16fJJ	.	.
=192	=192	=192
.	(32eeqLLL	.
.	32ffq	.
.	32ggqJJJ	.
16cLL	4.ff)	.
16f	.	.
16a	.	.
16fJJ	.	.
16cLL	.	.
16f	.	.
16a	8aa	.
16fJJ	.	.
=193	=193	=193
16cLL	(16aaLL	.
16e	16gg	.
16g	16ff	.
16eJJ	16eeJJ)	.
16c#LL	(8eeL	.
16a	.	.
16b-	16ggJk)	.
16aJJ	16r	.
=194	=194	=194
16dLL	(16ggLL	.
16f	16ff	.
16a	16ee	.
16fJJ	16ddJJ)	.
16BnLL	(8ddL	.
16g	.	.
16a-	16ffJk)	.
16gJJ	16r	.
=195	=195	=195
16cnLL	(16ffLL	.
16g	16ee	.
16e	16dd	.
16gJJ	16ccJJ)	.
16dLL	(8bL	.
16f	.	.
16c	8ccJ)	.
16eJJ	.	.
=196	=196	=196
16GLL	(4ee	.
16c	.	.
16e	.	.
16cJJ	.	.
8G 8B	16dd'LL)	<
.	(16gg	.
8r	16ff#	.
.	16ffnJJ)	[
*clefF4	*	*
=197	=197	=197
(16CLL	(16ffLL	f
16c	16ee	.
16E	16dd	.
16cJJ	16ccJJ)	.
16GLL	(16cc'LL	.
16c	16cc'	.
16E	16cc'	.
16cJJ)	16cc'JJ)	.
=198	=198	=198
16CLL	4.ccTT	.
16c	.	.
16E	.	.
16cJJ	.	.
16GLL	.	.
16c	.	.
.	32bqLLL	.
.	32ccqJJJ	.
16E	8ccc	.
16cJJ	.	.
=199	=199	=199
16CLL	(16bbLL	.
16c	16aa	.
16F	16gg	.
16cJJ	16ffJJ)	.
16ALL	(16ff'LL	.
16c	16ff'	.
16F	16ff'	.
16cJJ	16ff'JJ)	.
=200	=200	=200
16CLL	[4ffTT	.
16c	.	.
16F	.	.
16cJJ	.	.
.	32eeqq	.
16ALL	16ffLL]	.
16c	(16aa	.
16F	16ccc	.
16cJJ	16aaJJ)	.
=201	=201	=201
16ELL	(16ff#LL	.
16c	16ggJ)	.
16G	[8eeeJ	.
16cJJ	.	.
16C#LL	16eeeLL]	.
16A	(16gg	.
16E	16aa	.
16AJJ	16eeJJ)	.
=202	=202	=202
16CnLL	(16ggLL	.
16A	16ff#J)	.
16F#	[8dddJ	.
16AJJ	.	.
16BBLL	16dddLL]	.
16G	(16ffn	.
16D	16gg	.
16GJJ	16ddJJ)	.
=203	=203	=203
*^	*	*
8ryy	16CLL	(16ffLL	.
.	16GJJ	16eeJJ)	.
(16ALL	8Fn	(32ggLLL	.
.	.	32ff	.
16dJJ)	.	32ee	.
.	.	32ddJJJ	.
4ryy	(16GLL	8ccL)	.
.	16e)	.	.
.	(16G	8btJ	.
.	16fJJ)	.	.
*v	*v	*	*
.	(16aqLL	.
.	16bqJJ)	.
=204	=204	=204
*	*tuplet	*
8c 8e	(24ggLL	.
.	24ee	.
.	24ggJJ	.
8r	24cccLL	.
.	24gg	.
.	24cccJJ	.
*	*Xtuplet	*
8r	24eeeLL	.
.	24ddd	.
.	24cccJJ	.
8C# 8E 8A	24bb-LL	.
.	24aa	.
.	24ggJJ	.
=205	=205	=205
8D 8F 8A	24ffLL	.
.	24gg	.
.	24ffJJ	.
8r	24eeLL	.
.	24dd	.
.	24ccJJ	.
8GG 8D 8F	24bnLL	.
.	24a	.
.	24gJJ	.
8r	24fLL	.
.	24e	.
.	24dJJ	.
=206	=206	=206
*^	*	*
(8CL	8rEE	24eLL	.
.	.	24g	.
.	.	24ccJJ	.
8FJ)	8FF	24aLL	.
.	.	24f	.
.	.	24dJJ	.
(8EL	4GG	8cL)	.
8BBJ)	.	8dTJ	.
*v	*v	*	*
.	32cqLLL	.
.	32dqJJJ	.
=207	=207	=207
8C	8c	.
(<24eLL	(>24eeLL	.
24d	24dd	.
24cJJ	24ccJJ	.
24BLL	24bLL	.
24d	24dd	.
24cJJ	24ccJJ	.
24eLL	24eeLL	.
24G#	24g#	.
24BJJ	24bJJ	.
=208	=208	=208
24ALL	24aLL	.
24c	24cc	.
24BJJ	24bJJ	.
24ALL	24aLL	.
24Gn	24gn	.
24FJJ	24fJJ	.
24ELL	24eLL	.
24G	24g	.
24FJJ	24fJJ	.
24ALL	24aLL	.
24C#	24c#	.
24EJJ	24eJJ	.
=209	=209	=209
24DLL	24dLL	.
24F	24f	.
24EJJ	24eJJ	.
24DLL<	24dLL	.
24Cn	24cn	.
24BBJJ	24BJJ	.
24AALL<	24A<LL	.
24C	24c<	.
24BBJJ	24B<JJ	.
24DLL<	24d<LL	.
24FF#)	24F#<	.
24AAJJ	24A<JJ	.
=210	=210	=210
8GG\	8G</)	.
8r	8r	.
4r	16G'LL	p
.	16A'	.
.	16B'	.
.	16c'JJ	.
=211	=211	=211
8r	8d	.
8GG 8BB 8D	8r	.
4r	16g'LL	<
.	16a'	.
.	16b'	.
.	16cc'JJ	.
=212	=212	=212
8r	8dd	.
8GG 8BB 8D	8r	.
4r	16b'LL	f
.	16cc'	.
.	16dd'	.
.	16ee'JJ	.
=213	=213	=213
8r	8ffn	.
8G 8B 8d	8r	.
4r	16cc'LL	p
.	16dd'	.
.	16ee'	.
.	16ff'JJ	.
=214	=214	=214
2r	8gg'L	.
.	8aa'	.
.	8gg'	.
.	8ff#'J	.
=215	=215	=215
8r	8ffn	.
8G# 8B	8r	.
8r	8ee	.
8A 8c	8r	.
=216	=216	=216
4F 4A	8r	.
.	(8ddL	.
8r	8ff	.
8Gn 8f	8bJ	.
=217	=217	=217
8c 8eL	8cc)	.
8CJ	8r	.
16CC' 16C'LL	4r	f
16DD' 16D'	.	.
16EE' 16E'	.	.
16FF' 16F'JJ	.	.
=218	=218	=218
8GG' 8G'L	2r	.
8AA' 8A'	.	.
8GG' 8G'	.	.
8FF#' 8F#'J	.	.
=219	=219	=219
8FFn 8Fn	8r	.
8r	8dd 8gg# 8bb	.
8EE 8E	8r	.
8r	8cc# 8ggn 8bb-	.
=220	=220	=220
*^	*	*
*	*	*tuplet	*
8r	4F	24r	.
.	.	24aaLL	.
.	.	(24gg#JJ	.
*	*	*Xtuplet	*
8dL	.	24aaLL	.
.	.	24ff	.
.	.	24ddJJ	.
8e	8GL	8ccnL)	.
8BJ	8GJ	8ddTJ	.
*v	*v	*	*
.	(16ccqLL	.
.	16ddqJJ)	.
=221	=221	=221
4r	32gLLL	ff
.	32gg	.
.	32g	.
.	32ggJJJ	.
.	32gLLL	.
.	32gg	.
.	32g	.
.	32ggJJJ	.
8c 8eL	32gLLL	.
.	32gg	.
.	32g	.
.	32ggJJJ	.
8B 8fJ	32gLLL	.
.	32gg	.
.	32g	.
.	32ggJJJ	.
=222	=222	=222
8c 8e	32gLLL	.
.	32gg	.
.	32g	.
.	32ggJJJ	.
8r	32gLLL	.
.	32gg	.
.	32g	.
.	32ggJJJ	.
8C 8EL	32gLLL	.
.	32gg	.
.	32g	.
.	32ggJJJ	.
8BB 8FJ	32gLLL	.
.	32gg	.
.	32g	.
.	32ggJJJ	.
=223	=223	=223
8C 8E	32gLLL	.
.	32gg	.
.	32g	.
.	32ggJJJ	.
8r	32gLLL	.
.	32gg	.
.	32g	.
.	32ggJJJ	.
16c' 16e'LL	32gLLL	.
.	32gg	.
16c' 16e'	32g	.
.	32ggJJJ	.
16B' 16f'	32gLLL	.
.	32gg	.
16B' 16f'JJ	32g	.
.	32ggJJJ	.
=224	=224	=224
8c 8e	32gLLL	.
.	32gg	.
.	32g	.
.	32ggJJJ	.
8r	32gLLL	.
.	32gg	.
.	32g	.
.	32ggJJJ	.
16C' 16E'LL	32gLLL	.
.	32gg	.
16C' 16E'	32g	.
.	32ggJJJ	.
16BB' 16F'	32gLLL	.
.	32gg	.
16BB' 16F'JJ	32g	.
.	32ggJJJ	.
=225	=225	=225
8C 8E	32gLLL	.
.	32gg	.
.	32g	.
.	32ggJJJ	.
4.C# 4.E 4.G	32b-LLL	fp
.	32bb-	.
.	32b-	.
.	32bb-JJJ	.
.	32b-LLL	.
.	32bb-	.
.	32b-	.
.	32bb-JJJ	.
.	32b-LLL	.
.	32bb-	.
.	32b-	.
.	32bb-JJJ	.
=226	=226	=226
8D 8F	32aLLL	.
.	32aa	.
.	32a	.
.	32aaJJJ	.
4.GG# 4.D 4.F	32bnLLL	fp
.	32bbn	.
.	32b	.
.	32bbJJJ	.
.	32bLLL	.
.	32bb	.
.	32b	.
.	32bbJJJ	.
.	32bLLL	.
.	32bb	.
.	32b	.
.	32bbJJJ	.
=227	=227	=227
8AA 8C 8E	32ccLLL	.
.	32ccc	.
.	32cc	.
.	32cccJJJ	.
4.F# 4.A 4.c	32e-LLL	fp
.	32ee-	.
.	32e-	.
.	32ee-JJJ	.
.	32e-LLL	.
.	32ee-	.
.	32e-	.
.	32ee-JJJ	.
.	32e-LLL	.
.	32ee-	.
.	32e-	.
.	32ee-JJJ	.
=228	=228	=228
*	*tuplet	*
8G 8c	24r	.
.	(24eenLL	p
.	24dd#JJ	.
8r	24eeLL	.
.	24cc	.
.	24gJJ)	.
*	*Xtuplet	*
8G 8c 8e	24r	.
.	(24ggLL	.
.	24ff#JJ	.
8r	24ggLL	.
.	24ee	.
.	24ccJJ)	.
=229	=229	=229
8G 8c 8e	24r	<
.	(24cccLL	.
.	24bbJJ	.
8r	24cccLL	.
.	24gg	.
.	24eeJJ)	.
8G 8c 8e	24r	.
.	(24eeeLL	.
.	24ddd#JJ	.
8r	24eeeLL	.
.	24ccc	.
.	24ggJJ)	.
*clefG2	*	*
=230	=230	=230
24r	8ff# 8aa 8ccc 8eee-	f
(24ccLL	.	.
24bJJ	.	.
24ccLL	8r	.
24a	.	.
24f#JJ)	.	.
24r	8ff# 8aa 8ccc 8eee-	.
(24aLL	.	.
24g#JJ	.	.
24aLL	8r	.
24f#	.	.
24cJJ)	.	.
=231	=231	=231
24r	8ff# 8aa 8ccc 8eee-	.
(24f#LL	.	.
24e#JJ	.	.
24f#LL	8r	.
24c	.	.
24AJJ)	.	.
*clefF4	*	*
24r	8ff# 8aa 8ccc 8eee-	.
(24cLL	.	.
24BJJ	.	.
24cLL	8r	.
24A	.	.
24F#JJ)	.	.
=232	=232	=232
8G 8cL	32eeenLLL	.
.	(32ddd	.
.	32ccc	.
.	32bbJJJ	.
8G 8c	32cccLLL	.
.	32bb	.
.	32aa	.
.	32ggJJJ	.
8G 8c	32aaLLL	.
.	32gg	.
.	32ffn	.
.	32eeJJJ	.
8G 8cJ	32ffLLL	.
.	32ee	.
.	32dd	.
.	32ccJJJ)	.
=233	=233	=233
8G 8cL	2ddTT	.
8G 8c	.	.
8G 8B	.	.
8G 8BJ	.	.
.	(16ccqLL	.
.	16ddqJJ)	.
=234	=234	=234
8c	8cc	.
8GG 8GL	8r	.
8EE 8E	(16cLL	.
.	16e	.
8CC 8CJ	16g	.
.	16ccJJ)	.
=235	=235	=235
*	*^	*
8GG 8G	4cc	4e	.
8GL	.	.	.
8G	(16eeLL	4f	.
.	16dd	.	.
8GJ	16cc	.	.
.	16ddJJ)	.	.
=236	=236	=236	=236
8c	8cc	8e	.
8GG 8GL	8r	4.ryy	.
8EE 8E	16c 16eLL	.	.
.	16e 16g	.	.
8CC 8CJ	16g 16cc	.	.
.	16cc 16eeJJ	.	.
*	*v	*v	*
=237	=237	=237
8GG 8G	4cc 4ee	.
8GL	.	.
8G	16ee (16ggLL	.
.	16dd 16ff	.
8GJ	16cc 16ee	.
.	16dd 16ffJJ	.
=238	=238	=238
8c	8cc 8ee)	.
8GG 8GL	8r	.
8EE 8E	16e 16gLL	.
.	16g 16cc	.
8CC 8CJ	16cc 16ee	.
.	16ee 16ggJJ	.
=239	=239	=239
*	*^	*
8GG 8G	4ryy	4ee 4gg	.
8GL	.	.	.
8G	(8.bbtL	4dd	.
8GJ	.	.	.
.	32aaLL	.	.
.	32bbJJJ)	.	.
=240	=240	=240	=240
4C	8ccc	8ee	.
*	*	*tuplet	*
.	4.ryy	(24ggLL	.
.	.	24ee	.
.	.	24ccJJ	.
*	*	*Xtuplet	*
8r	.	24eeLL	.
.	.	24cc	.
.	.	24gJJ	.
8G 8d 8f	.	24bbLL	.
.	.	24gg	.
.	.	24ddJJ	.
*	*v	*v	*
=241	=241	=241
4c 4e	24cccLL	.
.	24gg	.
.	24eeJJ	.
.	24ggLL	.
.	24ee	.
.	24ccJJ	.
8r	24eeLL	.
.	24cc	.
.	24gJJ	.
8G 8d 8f	24bbLL	.
.	24gg	.
.	24ddJJ)	.
=242	=242	=242
8c 8e	8ee 8gg 8ccc	.
(24CLL	8r	.
24E	.	.
24GJJ	.	.
24ELL	8r	.
24G	.	.
24cJJ	.	.
24GLL	8dd 8gg 8bb	.
24B	.	.
24dJJ	.	.
=243	=243	=243
24cLL	8gg 8ccc	.
24e	.	.
24gJJ)	.	.
(24CLL	8r	.
24E	.	.
24GJJ	.	.
24ELL	8r	.
24G	.	.
24cJJ	.	.
24GLL	8dd 8gg 8bb	.
24B	.	.
24dJJ	.	.
=244	=244	=244
4c 4e)	4ee 4gg 4ccc	.
4r	8r	.
.	8g	p
=245	=245	=245
!LO:TX:i:t=legato	!	!
16CCLL	(16fLL	.
16GG	16e	.
16EE	16d	.
16GGJJ	16cJJ)	.
16CLL	8cL	.
16GG	.	.
16EE	8cJ	.
16GGJJ	.	.
=246	=246	=246
16CCLL	4.c	.
16GG	.	.
16EE	.	.
16GGJJ	.	.
16BB-LL	.	.
16GG	.	.
16EE	8cc	.
16GGJJ	.	.
=247	=247	=247
16CCLL	(16b-LL	.
16AA	16a	.
16FF	16g	.
16AAJJ	16fJJ)	.
16CLL	8fL	.
16AA	.	.
16FF	8fJ	.
16AAJJ	.	.
=248	=248	=248
16CCLL	4.f	.
16AA	.	.
16FF	.	.
16AAJJ	.	.
16CLL	.	.
16AA	.	.
16FF	8a	.
16AAJJ	.	.
=249	=249	=249
16CCLL	(16gLL	.
16GG	16f	.
16FF	16e	.
16GGJJ	16dJJ)	.
16BBnLL	8dL	.
16GG	.	.
16FF	8dJ	.
16GGJJ	.	.
=250	=250	=250
16CCLL	(8.gL	pp
16BB	.	.
16GG	.	.
16BBJJ	16aJk)	.
16DLL	(16gLL	.
16BB	16f	.
16GG	16e	.
16BBJJ	16dJJ)	.
=251	=251	=251
16CCLL<	(16dLL	.
16GG	16cJ)	.
16EE	8E< 8G< 8c	.
16GGJJ	.	.
16C\LL	8E< 8G< 8c	.
16GG	.	.
16EE	8E< 8G< 8cJ	.
16GGJJ	.	.
=252	=252	=252
4CC\ 4C\	4E< 4G< 4c	.
8r	8r	.
==	==	==
*-	*-	*-
!!!RDF**kern: > = above
!!!RDF**kern: < = below
!!!YOR: Alte Mozart-Ausgabe, Band 20, Breitkopf &amp; H&auml;rtel 1877-1883.
!!!YOY: 1878
!!!YEC: 2018 Craig Stuart Sapp
!!!YEM: Licence: (CC BY-NC-SA 4.0) https://creativecommons.org/licenses/by-nc-sa/4.0
!!!YER: 2018
!!!ENC: Craig Stuart Sapp
!!!END: 2009/09/24
!!!EED: Craig Stuart Sapp
!!!EEV: 2018/06/16
!!!EFL: 33/69
!!!AGN: piano sonata
!!!AFR: rondo
!!!title: @{OTL}, K 309 (284b), mvmt. @{OMV}
